;FLAVOR:Marlin
;TIME:2037
;Filament used: 1.19832m
;Layer height: 0.28
;MINX:94.733
;MINY:90.593
;MINZ:0.28
;MAXX:125.267
;MAXY:129.407
;MAXZ:41.16
;Generated with Cura_SteamEngine master
M140 S50
M105
M190 S50
M104 S200
M105
M109 S200
M82 ;absolute extrusion mode
M201 X500.00 Y500.00 Z100.00 E5000.00 ;Setup machine max acceleration
M203 X500.00 Y500.00 Z10.00 E50.00 ;Setup machine max feedrate
M204 P500.00 R1000.00 T500.00 ;Setup Print/Retract/Travel acceleration
M205 X8.00 Y8.00 Z0.40 E5.00 ;Setup Jerk
M220 S100 ;Reset Feedrate
M221 S100 ;Reset Flowrate

G28 ;Home

G92 E0 ;Reset Extruder
G1 Z2.0 F3000 ;Move Z Axis up
G1 X10.1 Y20 Z0.28 F5000.0 ;Move to start position
G1 X10.1 Y200.0 Z0.28 F1500.0 E15 ;Draw the first line
G1 X10.4 Y200.0 Z0.28 F5000.0 ;Move to side a little
G1 X10.4 Y20 Z0.28 F1500.0 E30 ;Draw the second line
G92 E0 ;Reset Extruder
G1 Z2.0 F3000 ;Move Z Axis up

G92 E0
G92 E0
G1 F2700 E-5
;LAYER_COUNT:147
;LAYER:0
M107
G0 F6000 X98.978 Y97.025 Z0.28
;TYPE:SKIRT
G1 F2700 E0
G1 F1200 X99.586 Y96.52 E0.0368
G1 X100.241 Y96.08 E0.07355
G1 X100.938 Y95.708 E0.11033
G1 X101.668 Y95.408 E0.14708
G1 X102.426 Y95.184 E0.18389
G1 X103.202 Y95.038 E0.22066
G1 X104.258 Y94.966 E0.26994
G1 X105.193 Y94.966 E0.31348
G1 X105.465 Y94.494 E0.33885
G1 X105.894 Y93.831 E0.37562
G1 X106.388 Y93.215 E0.41239
G1 X106.941 Y92.652 E0.44913
G1 X107.549 Y92.147 E0.48594
G1 X108.204 Y91.707 E0.52268
G1 X108.901 Y91.335 E0.55947
G1 X109.631 Y91.035 E0.59622
G1 X110.389 Y90.811 E0.63302
G1 X111.165 Y90.665 E0.66979
G1 X112.221 Y90.593 E0.71907
G1 X115.677 Y90.593 E0.88
G1 X116.466 Y90.633 E0.91679
G1 X117.246 Y90.752 E0.95353
G1 X118.011 Y90.95 E0.99032
G1 X118.751 Y91.224 E1.02707
G1 X119.46 Y91.572 E1.06384
G1 X120.131 Y91.99 E1.10065
G1 X120.755 Y92.473 E1.1374
G1 X121.328 Y93.016 E1.17416
G1 X121.843 Y93.615 E1.21094
G1 X122.434 Y94.496 E1.26034
G1 X124.159 Y97.487 E1.42111
G1 X124.518 Y98.19 E1.45787
G1 X124.805 Y98.926 E1.49465
G1 X125.015 Y99.687 E1.53141
G1 X125.148 Y100.466 E1.56821
G1 X125.201 Y101.254 E1.60499
G1 X125.174 Y102.043 E1.64175
G1 X125.068 Y102.825 E1.67849
G1 X124.883 Y103.593 E1.71528
G1 X124.621 Y104.338 E1.75205
G1 X124.159 Y105.281 E1.80095
G1 X123.88 Y105.765 E1.82696
G1 X124.224 Y106.362 E1.85905
G1 X124.583 Y107.066 E1.89584
G1 X124.87 Y107.801 E1.93258
G1 X125.081 Y108.562 E1.96936
G1 X125.214 Y109.341 E2.00615
G1 X125.267 Y110.129 E2.04293
G1 X125.24 Y110.918 E2.07969
G1 X125.134 Y111.7 E2.11644
G1 X124.949 Y112.468 E2.15322
G1 X124.688 Y113.213 E2.18998
G1 X124.224 Y114.16 E2.23908
G1 X123.998 Y114.552 E2.26015
G1 X124.093 Y114.717 E2.26902
G1 X124.452 Y115.421 E2.30582
G1 X124.739 Y116.156 E2.34256
G1 X124.95 Y116.917 E2.37933
G1 X125.083 Y117.696 E2.41613
G1 X125.136 Y118.484 E2.4529
G1 X125.109 Y119.273 E2.48966
G1 X125.003 Y120.055 E2.52641
G1 X124.818 Y120.823 E2.56319
G1 X124.557 Y121.568 E2.59995
G1 X124.093 Y122.515 E2.64906
G1 X122.367 Y125.506 E2.80986
G1 X121.938 Y126.169 E2.84663
G1 X121.444 Y126.785 E2.8834
G1 X120.891 Y127.348 E2.92014
G1 X120.283 Y127.853 E2.95695
G1 X119.628 Y128.293 E2.99369
G1 X118.931 Y128.665 E3.03048
G1 X118.201 Y128.965 E3.06723
G1 X117.443 Y129.189 E3.10403
G1 X116.667 Y129.335 E3.1408
G1 X115.611 Y129.407 E3.19008
G1 X112.156 Y129.407 E3.35096
G1 X111.367 Y129.367 E3.38775
G1 X110.587 Y129.248 E3.42449
G1 X109.822 Y129.05 E3.46129
G1 X109.082 Y128.776 E3.49803
G1 X108.373 Y128.428 E3.53481
G1 X107.702 Y128.01 E3.57162
G1 X107.078 Y127.527 E3.60836
G1 X106.505 Y126.984 E3.64512
G1 X105.99 Y126.385 E3.6819
G1 X105.4 Y125.506 E3.7312
G1 X105.278 Y125.295 E3.74255
G1 X104.323 Y125.295 E3.78702
G1 X103.534 Y125.255 E3.8238
G1 X102.754 Y125.136 E3.86054
G1 X101.989 Y124.938 E3.89734
G1 X101.249 Y124.664 E3.93408
G1 X100.54 Y124.316 E3.97086
G1 X99.869 Y123.898 E4.00767
G1 X99.245 Y123.415 E4.04441
G1 X98.672 Y122.872 E4.08117
G1 X98.157 Y122.273 E4.11795
G1 X97.566 Y121.392 E4.16735
G1 X95.841 Y118.401 E4.32813
G1 X95.482 Y117.698 E4.36489
G1 X95.195 Y116.962 E4.40167
G1 X94.985 Y116.201 E4.43843
G1 X94.852 Y115.422 E4.47523
G1 X94.799 Y114.634 E4.512
G1 X94.826 Y113.845 E4.54876
G1 X94.932 Y113.063 E4.58551
G1 X95.117 Y112.295 E4.62229
G1 X95.379 Y111.55 E4.65907
G1 X95.841 Y110.607 E4.70796
G1 X96.083 Y110.188 E4.7305
G1 X95.776 Y109.656 E4.7591
G1 X95.417 Y108.952 E4.79589
G1 X95.13 Y108.217 E4.83263
G1 X94.919 Y107.456 E4.86941
G1 X94.786 Y106.677 E4.90621
G1 X94.733 Y105.889 E4.94298
G1 X94.76 Y105.1 E4.97974
G1 X94.866 Y104.318 E5.01649
G1 X95.051 Y103.55 E5.05327
G1 X95.312 Y102.805 E5.09003
G1 X95.776 Y101.858 E5.13913
G1 X97.502 Y98.867 E5.29993
G1 X97.931 Y98.204 E5.3367
G1 X98.425 Y97.588 E5.37347
G1 X98.978 Y97.025 E5.41022
G0 F6000 X99.293 Y97.279
G1 F1200 X99.89 Y96.793 E5.44606
G1 X100.533 Y96.372 E5.48185
G1 X101.217 Y96.02 E5.51767
G1 X101.934 Y95.741 E5.5535
G1 X102.675 Y95.537 E5.58929
G1 X103.434 Y95.412 E5.6251
G1 X104.258 Y95.366 E5.66353
G1 X105.424 Y95.366 E5.71783
G1 X105.812 Y94.694 E5.75396
G1 X106.23 Y94.049 E5.78975
G1 X106.713 Y93.451 E5.82554
G1 X107.256 Y92.906 E5.86136
G1 X107.853 Y92.42 E5.89721
G1 X108.496 Y91.999 E5.933
G1 X109.18 Y91.647 E5.96882
G1 X109.897 Y91.368 E6.00464
G1 X110.638 Y91.164 E6.04043
G1 X111.397 Y91.039 E6.07625
G1 X112.221 Y90.993 E6.11468
G1 X115.677 Y90.993 E6.2756
G1 X116.445 Y91.033 E6.31141
G1 X117.205 Y91.152 E6.34723
G1 X117.948 Y91.35 E6.38304
G1 X118.667 Y91.624 E6.41887
G1 X119.353 Y91.971 E6.45466
G1 X120 Y92.387 E6.49048
G1 X120.6 Y92.868 E6.52629
G1 X121.147 Y93.409 E6.56211
G1 X121.635 Y94.004 E6.59794
G1 X122.087 Y94.696 E6.63643
G1 X123.812 Y97.687 E6.79721
G1 X124.161 Y98.372 E6.83301
G1 X124.438 Y99.09 E6.86884
G1 X124.638 Y99.833 E6.90467
G1 X124.76 Y100.592 E6.94046
G1 X124.802 Y101.36 E6.97628
G1 X124.764 Y102.129 E7.01213
G1 X124.647 Y102.889 E7.04794
G1 X124.452 Y103.633 E7.08375
G1 X124.181 Y104.352 E7.11953
G1 X123.812 Y105.081 E7.15758
G1 X123.417 Y105.765 E7.19435
G1 X123.877 Y106.562 E7.2372
G1 X124.227 Y107.248 E7.27306
G1 X124.503 Y107.965 E7.30884
G1 X124.703 Y108.708 E7.34467
G1 X124.825 Y109.467 E7.38046
G1 X124.868 Y110.235 E7.41628
G1 X124.831 Y111.004 E7.45213
G1 X124.714 Y111.764 E7.48794
G1 X124.519 Y112.508 E7.52375
G1 X124.247 Y113.228 E7.55959
G1 X123.877 Y113.96 E7.59778
G1 X123.535 Y114.552 E7.62962
G1 X123.746 Y114.917 E7.64925
G1 X124.096 Y115.603 E7.68511
G1 X124.372 Y116.32 E7.72088
G1 X124.572 Y117.063 E7.75671
G1 X124.694 Y117.822 E7.79251
G1 X124.737 Y118.59 E7.82832
G1 X124.7 Y119.359 E7.86417
G1 X124.583 Y120.119 E7.89998
G1 X124.388 Y120.863 E7.93579
G1 X124.116 Y121.583 E7.97163
G1 X123.746 Y122.315 E8.00982
G1 X122.02 Y125.306 E8.17062
G1 X121.602 Y125.951 E8.20641
G1 X121.119 Y126.549 E8.24221
G1 X120.576 Y127.094 E8.27803
G1 X119.979 Y127.58 E8.31387
G1 X119.336 Y128.001 E8.34966
G1 X118.652 Y128.353 E8.38548
G1 X117.935 Y128.632 E8.42131
G1 X117.194 Y128.836 E8.4571
G1 X116.435 Y128.961 E8.49291
G1 X115.611 Y129.007 E8.53134
G1 X112.156 Y129.007 E8.69222
G1 X111.388 Y128.967 E8.72803
G1 X110.628 Y128.848 E8.76385
G1 X109.885 Y128.65 E8.79966
G1 X109.166 Y128.376 E8.83548
G1 X108.48 Y128.029 E8.87128
G1 X107.833 Y127.613 E8.9071
G1 X107.233 Y127.132 E8.94291
G1 X106.686 Y126.591 E8.97873
G1 X106.198 Y125.996 E9.01456
G1 X105.747 Y125.306 E9.05295
G1 X105.51 Y124.895 E9.07504
G1 X104.323 Y124.895 E9.13031
G1 X103.555 Y124.855 E9.16612
G1 X102.795 Y124.736 E9.20194
G1 X102.052 Y124.538 E9.23774
G1 X101.333 Y124.264 E9.27357
G1 X100.647 Y123.917 E9.30937
G1 X100 Y123.501 E9.34519
G1 X99.4 Y123.02 E9.38099
G1 X98.853 Y122.479 E9.41682
G1 X98.365 Y121.884 E9.45265
G1 X97.913 Y121.192 E9.49114
G1 X96.188 Y118.201 E9.65191
G1 X95.839 Y117.516 E9.68771
G1 X95.562 Y116.798 E9.72355
G1 X95.362 Y116.055 E9.75937
G1 X95.24 Y115.296 E9.79517
G1 X95.198 Y114.528 E9.83099
G1 X95.236 Y113.759 E9.86684
G1 X95.353 Y112.999 E9.90264
G1 X95.548 Y112.255 E9.93846
G1 X95.819 Y111.536 E9.97424
G1 X96.188 Y110.807 E10.01228
G1 X96.545 Y110.188 E10.04555
G1 X96.123 Y109.456 E10.0849
G1 X95.773 Y108.77 E10.12076
G1 X95.497 Y108.053 E10.15653
G1 X95.297 Y107.31 E10.19236
G1 X95.175 Y106.551 E10.22816
G1 X95.132 Y105.783 E10.26398
G1 X95.169 Y105.014 E10.29982
G1 X95.286 Y104.254 E10.33563
G1 X95.481 Y103.51 E10.37144
G1 X95.753 Y102.79 E10.40728
G1 X96.123 Y102.058 E10.44547
G1 X97.849 Y99.067 E10.60627
G1 X98.267 Y98.422 E10.64206
G1 X98.75 Y97.824 E10.67786
G1 X99.293 Y97.279 E10.71368
G0 F6000 X99.607 Y97.534
G1 F1200 X100.192 Y97.068 E10.74851
G1 X100.824 Y96.666 E10.78338
G1 X101.494 Y96.335 E10.81818
G1 X102.196 Y96.077 E10.85301
G1 X102.922 Y95.895 E10.88786
G1 X103.663 Y95.791 E10.9227
G1 X104.258 Y95.766 E10.95043
G1 X105.655 Y95.766 E11.01548
G1 X106.158 Y94.894 E11.06236
G1 X106.566 Y94.267 E11.09719
G1 X107.039 Y93.687 E11.13204
G1 X107.57 Y93.161 E11.16684
G1 X108.155 Y92.695 E11.20167
G1 X108.787 Y92.293 E11.23655
G1 X109.457 Y91.962 E11.27134
G1 X110.159 Y91.704 E11.30617
G1 X110.885 Y91.522 E11.34102
G1 X111.626 Y91.418 E11.37586
G1 X112.221 Y91.393 E11.40359
G1 X115.677 Y91.393 E11.56452
G1 X116.424 Y91.433 E11.59935
G1 X117.162 Y91.552 E11.63416
G1 X117.884 Y91.75 E11.66902
G1 X118.58 Y92.023 E11.70383
G1 X119.243 Y92.37 E11.73868
G1 X119.866 Y92.785 E11.77353
G1 X120.44 Y93.264 E11.80835
G1 X120.961 Y93.801 E11.84319
G1 X121.42 Y94.391 E11.87799
G1 X121.741 Y94.896 E11.90586
G1 X123.466 Y97.887 E12.06663
G1 X123.804 Y98.554 E12.10145
G1 X124.07 Y99.253 E12.13628
G1 X124.259 Y99.977 E12.17112
G1 X124.37 Y100.717 E12.20596
G1 X124.402 Y101.464 E12.24078
G1 X124.353 Y102.211 E12.27564
G1 X124.225 Y102.948 E12.31047
G1 X124.019 Y103.667 E12.34529
G1 X123.738 Y104.36 E12.38011
G1 X123.466 Y104.881 E12.40748
G1 X122.956 Y105.765 E12.455
G1 X123.531 Y106.762 E12.5086
G1 X123.87 Y107.429 E12.54343
G1 X124.135 Y108.129 E12.57829
G1 X124.325 Y108.852 E12.6131
G1 X124.436 Y109.592 E12.64794
G1 X124.468 Y110.339 E12.68275
G1 X124.419 Y111.086 E12.71761
G1 X124.292 Y111.823 E12.75244
G1 X124.086 Y112.542 E12.78726
G1 X123.805 Y113.235 E12.82208
G1 X123.531 Y113.76 E12.84966
G1 X123.074 Y114.552 E12.89224
G1 X123.4 Y115.117 E12.92261
G1 X123.739 Y115.784 E12.95745
G1 X124.004 Y116.484 E12.9923
G1 X124.194 Y117.207 E13.02711
G1 X124.305 Y117.947 E13.06196
G1 X124.337 Y118.694 E13.09677
G1 X124.288 Y119.441 E13.13163
G1 X124.161 Y120.178 E13.16645
G1 X123.955 Y120.897 E13.20128
G1 X123.674 Y121.59 E13.2361
G1 X123.4 Y122.115 E13.26368
G1 X121.674 Y125.106 E13.42447
G1 X121.266 Y125.733 E13.45931
G1 X120.793 Y126.313 E13.49416
G1 X120.262 Y126.839 E13.52896
G1 X119.677 Y127.305 E13.56379
G1 X119.045 Y127.707 E13.59866
G1 X118.375 Y128.038 E13.63346
G1 X117.673 Y128.296 E13.66829
G1 X116.947 Y128.478 E13.70314
G1 X116.206 Y128.582 E13.73798
G1 X115.611 Y128.607 E13.76571
G1 X112.156 Y128.607 E13.92659
G1 X111.409 Y128.567 E13.96142
G1 X110.671 Y128.448 E13.99623
G1 X109.949 Y128.25 E14.03109
G1 X109.253 Y127.977 E14.0659
G1 X108.59 Y127.63 E14.10075
G1 X107.967 Y127.215 E14.13561
G1 X107.393 Y126.736 E14.17042
G1 X106.872 Y126.199 E14.20526
G1 X106.413 Y125.609 E14.24006
G1 X106.093 Y125.106 E14.26782
G1 X105.74 Y124.495 E14.30068
G1 X104.323 Y124.495 E14.36666
G1 X103.576 Y124.455 E14.4015
G1 X102.838 Y124.336 E14.43631
G1 X102.116 Y124.138 E14.47117
G1 X101.42 Y123.865 E14.50598
G1 X100.757 Y123.518 E14.54082
G1 X100.134 Y123.103 E14.57568
G1 X99.56 Y122.624 E14.61049
G1 X99.039 Y122.087 E14.64533
G1 X98.58 Y121.497 E14.68014
G1 X98.259 Y120.992 E14.708
G1 X96.534 Y118.001 E14.86878
G1 X96.196 Y117.334 E14.9036
G1 X95.93 Y116.635 E14.93842
G1 X95.741 Y115.911 E14.97326
G1 X95.63 Y115.171 E15.00811
G1 X95.598 Y114.424 E15.04292
G1 X95.647 Y113.677 E15.07778
G1 X95.775 Y112.94 E15.11261
G1 X95.981 Y112.221 E15.14744
G1 X96.262 Y111.528 E15.18226
G1 X96.534 Y111.007 E15.20963
G1 X97.007 Y110.188 E15.25367
G1 X96.469 Y109.256 E15.30378
G1 X96.13 Y108.589 E15.33861
G1 X95.865 Y107.889 E15.37347
G1 X95.675 Y107.166 E15.40828
G1 X95.564 Y106.426 E15.44312
G1 X95.532 Y105.679 E15.47793
G1 X95.581 Y104.932 E15.51279
G1 X95.708 Y104.195 E15.54762
G1 X95.914 Y103.476 E15.58244
G1 X96.195 Y102.783 E15.61726
G1 X96.469 Y102.258 E15.64484
G1 X98.195 Y99.267 E15.80564
G1 X98.603 Y98.64 E15.84047
G1 X99.076 Y98.06 E15.87532
G1 X99.607 Y97.534 E15.91012
G0 F6000 X99.921 Y97.791
G1 F1200 X100.493 Y97.345 E15.9439
G1 X101.112 Y96.964 E15.97774
G1 X101.769 Y96.653 E16.01159
G1 X102.455 Y96.417 E16.04537
G1 X103.164 Y96.257 E16.07922
G1 X103.886 Y96.177 E16.11304
G1 X104.258 Y96.166 E16.13037
G1 X105.886 Y96.166 E16.20618
G1 X106.505 Y95.094 E16.26382
G1 X106.902 Y94.486 E16.29763
G1 X107.363 Y93.925 E16.33144
G1 X107.884 Y93.418 E16.36529
G1 X108.456 Y92.972 E16.39907
G1 X109.075 Y92.591 E16.43291
G1 X109.732 Y92.28 E16.46676
G1 X110.418 Y92.044 E16.50054
G1 X111.127 Y91.884 E16.53438
G1 X111.849 Y91.804 E16.56821
G1 X112.221 Y91.793 E16.58554
G1 X115.677 Y91.793 E16.74646
G1 X116.402 Y91.833 E16.78027
G1 X117.119 Y91.952 E16.81412
G1 X117.818 Y92.15 E16.84795
G1 X118.491 Y92.423 E16.88176
G1 X119.13 Y92.768 E16.91558
G1 X119.727 Y93.182 E16.94941
G1 X120.275 Y93.658 E16.98321
G1 X120.768 Y94.192 E17.01705
G1 X121.198 Y94.777 E17.05085
G1 X121.394 Y95.096 E17.06829
G1 X123.119 Y98.087 E17.22906
G1 X123.447 Y98.735 E17.26288
G1 X123.702 Y99.415 E17.2967
G1 X123.88 Y100.119 E17.33051
G1 X123.979 Y100.839 E17.36435
G1 X124 Y101.565 E17.39817
G1 X123.94 Y102.289 E17.432
G1 X123.801 Y103.002 E17.46583
G1 X123.584 Y103.695 E17.49964
G1 X123.293 Y104.36 E17.53344
G1 X123.119 Y104.681 E17.55044
G1 X122.494 Y105.765 E17.60871
G1 X123.184 Y106.962 E17.67304
G1 X123.512 Y107.61 E17.70686
G1 X123.767 Y108.291 E17.74072
G1 X123.945 Y108.995 E17.77453
G1 X124.045 Y109.714 E17.80834
G1 X124.066 Y110.44 E17.84216
G1 X124.006 Y111.164 E17.87598
G1 X123.867 Y111.877 E17.90981
G1 X123.651 Y112.571 E17.94365
G1 X123.359 Y113.236 E17.97747
G1 X123.184 Y113.56 E17.99462
G1 X122.612 Y114.552 E18.04794
G1 X123.053 Y115.317 E18.08906
G1 X123.381 Y115.965 E18.12288
G1 X123.636 Y116.646 E18.15674
G1 X123.814 Y117.35 E18.19055
G1 X123.914 Y118.069 E18.22435
G1 X123.935 Y118.795 E18.25817
G1 X123.875 Y119.519 E18.292
G1 X123.736 Y120.232 E18.32582
G1 X123.52 Y120.926 E18.35967
G1 X123.228 Y121.591 E18.39349
G1 X123.053 Y121.915 E18.41063
G1 X121.327 Y124.906 E18.57143
G1 X120.93 Y125.514 E18.60525
G1 X120.469 Y126.075 E18.63906
G1 X119.948 Y126.582 E18.67291
G1 X119.376 Y127.028 E18.70668
G1 X118.757 Y127.409 E18.74053
G1 X118.1 Y127.72 E18.77437
G1 X117.414 Y127.956 E18.80815
G1 X116.705 Y128.116 E18.842
G1 X115.983 Y128.196 E18.87582
G1 X115.611 Y128.207 E18.89315
G1 X112.156 Y128.207 E19.05403
G1 X111.431 Y128.167 E19.08784
G1 X110.714 Y128.048 E19.12169
G1 X110.015 Y127.85 E19.15552
G1 X109.342 Y127.577 E19.18933
G1 X108.703 Y127.232 E19.22315
G1 X108.106 Y126.818 E19.25698
G1 X107.558 Y126.342 E19.29078
G1 X107.065 Y125.808 E19.32462
G1 X106.635 Y125.223 E19.35842
G1 X106.44 Y124.906 E19.37575
G1 X105.972 Y124.095 E19.41936
G1 X104.323 Y124.095 E19.49614
G1 X103.598 Y124.055 E19.52995
G1 X102.881 Y123.936 E19.56379
G1 X102.182 Y123.738 E19.59762
G1 X101.509 Y123.465 E19.63144
G1 X100.87 Y123.12 E19.66525
G1 X100.273 Y122.706 E19.69908
G1 X99.725 Y122.23 E19.73288
G1 X99.232 Y121.696 E19.76672
G1 X98.802 Y121.111 E19.80053
G1 X98.606 Y120.792 E19.81797
G1 X96.881 Y117.801 E19.97874
G1 X96.553 Y117.153 E20.01256
G1 X96.298 Y116.473 E20.04638
G1 X96.12 Y115.769 E20.08019
G1 X96.021 Y115.049 E20.11403
G1 X96 Y114.323 E20.14785
G1 X96.06 Y113.599 E20.18168
G1 X96.199 Y112.886 E20.2155
G1 X96.416 Y112.193 E20.24932
G1 X96.707 Y111.528 E20.28312
G1 X96.881 Y111.207 E20.30012
G1 X97.469 Y110.188 E20.3549
G1 X96.816 Y109.056 E20.41575
G1 X96.488 Y108.408 E20.44957
G1 X96.233 Y107.727 E20.48343
G1 X96.055 Y107.023 E20.51725
G1 X95.955 Y106.304 E20.55105
G1 X95.934 Y105.578 E20.58487
G1 X95.994 Y104.854 E20.6187
G1 X96.133 Y104.141 E20.65252
G1 X96.349 Y103.447 E20.68637
G1 X96.641 Y102.782 E20.72018
G1 X96.816 Y102.458 E20.73733
G1 X98.542 Y99.467 E20.89813
G1 X98.939 Y98.859 E20.93194
